icons/svg/format-superscript.svg

﻿<?xml version="1.0" encoding="utf-8"?>
<!DOCTYPE svg PUBLIC "-//W3C//DTD SVG 1.1//EN" "http://www.w3.org/Graphics/SVG/1.1/DTD/svg11.dtd">
<svg xmlns="http://www.w3.org/2000/svg" xmlns:xlink="http://www.w3.org/1999/xlink" version="1.1" baseProfile="full" width="24" height="24" viewBox="0 0 24.00 24.00" enable-background="new 0 0 24.00 24.00" xml:space="preserve">
	<path fill="#000000" fill-opacity="1" stroke-linejoin="round" d="M 16,7.41002L 11.41,12L 16,16.59L 14.59,18L 10,13.41L 5.41,18L 4,16.59L 8.59,12L 4,7.41002L 5.41,6.00002L 10,10.59L 14.59,6.00002L 16,7.41002 Z M 21.848,8.98333L 16.9651,8.98333L 16.9651,7.98727L 17.8612,7.18341C 18.6172,6.53625 19.1826,5.9923 19.5573,5.55155C 19.932,5.11081 20.124,4.69927 20.1333,4.31695C 20.1358,4.03501 20.0455,3.80171 19.8626,3.61706C 19.6797,3.43241 19.3895,3.33672 18.9919,3.33C 18.6915,3.3365 18.415,3.39627 18.1625,3.50931L 17.5092,3.89113L 17.0505,2.71984C 17.3152,2.5093 17.6418,2.33413 18.0305,2.19433C 18.4192,2.05453 18.8499,1.98198 19.3226,1.97667C 20.1014,1.99035 20.695,2.20148 21.1032,2.61006C 21.5115,3.01864 21.7171,3.5426 21.72,4.18194C 21.7062,4.74385 21.5276,5.26097 21.1844,5.7333C 20.8412,6.20564 20.4161,6.65785 19.9093,7.08994L 19.2693,7.60923L 19.2693,7.63L 21.848,7.63L 21.848,8.98333 Z "/>
</svg>

<svg xmlns="http://www.w3.org/2000/svg" version="1.1" baseProfile="full" width="24" height="24" viewBox="0 0 24.00 24.00" xml:space="preserve"><path fill="#000" fill-opacity="1" stroke-linejoin="round" d="M16 7.41L11.41 12 16 16.59 14.59 18 10 13.41 5.41 18 4 16.59 8.59 12 4 7.41 5.41 6 10 10.59 14.59 6 16 7.41zm5.848 1.573h-4.883v-.996l.896-.804c.757-.647 1.323-1.19 1.697-1.63.375-.442.567-.854.576-1.236.003-.282-.087-.515-.27-.7-.183-.185-.473-.28-.87-.287-.3.006-.578.066-.83.18l-.654.38-.46-1.17c.265-.21.592-.386.98-.526.39-.14.82-.212 1.293-.217.778.013 1.372.224 1.78.633.41.41.614.933.617 1.572-.014.562-.192 1.08-.536 1.55-.343.474-.768.926-1.275 1.358l-.64.52v.02h2.578v1.353z"/></svg>
